src/icons/brand/glyph/AmazonIcon.svg

<svg width="24" height="24" viewBox="0 0 24 24" fill="none" xmlns="http://www.w3.org/2000/svg">
<path d="M0.964724 17.5569C1.03119 17.4498 1.13735 17.4424 1.28595 17.5366C4.64226 19.4843 8.29581 20.4591 12.2429 20.4591C14.8755 20.4591 17.4749 19.9671 20.0401 18.9868L20.3309 18.8575C20.4582 18.8022 20.5469 18.7652 20.6013 18.7375C20.8099 18.6563 20.9613 18.6951 21.0859 18.8575C21.1967 19.0182 21.169 19.1677 20.9752 19.3006C20.7388 19.476 20.4213 19.6791 20.0465 19.9043C18.8982 20.5902 17.6096 21.1191 16.1835 21.4976C14.7712 21.8723 13.3727 22.0606 12.0148 22.0606C9.92407 22.0606 7.94407 21.6951 6.07484 20.9649C4.21022 20.232 2.54868 19.2019 1.06253 17.8726C0.970219 17.8043 0.924072 17.7342 0.924072 17.6696C0.924072 17.6262 0.942527 17.5865 0.96468 17.557L0.964724 17.5569ZM7.02473 11.8172C7.02473 10.8895 7.25274 10.0975 7.71057 9.43846C8.16749 8.78308 8.79057 8.28462 9.59365 7.94768C10.3284 7.63846 11.2146 7.41692 12.2816 7.28307C12.6416 7.2406 13.2352 7.18798 14.0539 7.12245V6.78091C14.0539 5.92244 13.957 5.34274 13.777 5.05014C13.4983 4.65321 13.057 4.45014 12.4478 4.45014H12.2798C11.8367 4.49261 11.4527 4.63107 11.1296 4.87477C10.8066 5.124 10.5989 5.4563 10.5066 5.88647C10.4512 6.16339 10.3164 6.3157 10.105 6.35723L7.77887 6.06647C7.54996 6.01108 7.43549 5.90031 7.43549 5.70647C7.43549 5.664 7.44195 5.62339 7.4558 5.568C7.68381 4.37723 8.24503 3.49108 9.13579 2.90954C10.0367 2.34092 11.0743 2.00954 12.265 1.94031H12.7635C14.2866 1.94031 15.493 2.34092 16.3524 3.13108C16.477 3.26954 16.6016 3.408 16.7263 3.57416C16.837 3.72647 16.933 3.864 16.9875 3.98954C17.0567 4.11323 17.126 4.29416 17.1675 4.5157C17.2229 4.75015 17.2644 4.90339 17.2921 4.98647C17.3198 5.08246 17.3493 5.26339 17.3623 5.55416C17.3715 5.84309 17.3807 6.00924 17.3807 6.06463V10.9385C17.3807 11.2856 17.4361 11.6031 17.533 11.8948C17.63 12.1837 17.7269 12.3932 17.8238 12.5169L18.2946 13.1391C18.3776 13.2646 18.4201 13.3754 18.4201 13.4714C18.4201 13.5822 18.3647 13.68 18.254 13.7612C17.1463 14.7305 16.537 15.2566 16.442 15.3397C16.2896 15.4643 16.0958 15.4782 15.8604 15.3812C15.6804 15.228 15.5143 15.0748 15.3749 14.9234L15.0887 14.6031C15.0333 14.5348 14.9355 14.4092 14.7961 14.2154L14.5192 13.8138C13.7715 14.6317 13.0395 15.1431 12.3038 15.3508C11.8478 15.4892 11.2949 15.5603 10.6146 15.5603C9.58995 15.5603 8.73149 15.2437 8.06687 14.6058C7.40226 13.9689 7.06995 13.0689 7.06995 11.892L7.02473 11.8172ZM10.489 11.4129C10.489 11.9354 10.6183 12.3545 10.8813 12.672C11.1444 12.9858 11.5044 13.1446 11.9475 13.1446C11.989 13.1446 12.0453 13.1381 12.1275 13.1261C12.2106 13.1114 12.2512 13.1049 12.2807 13.1049C12.8475 12.9572 13.2777 12.5945 13.5952 12.0175C13.7475 11.7591 13.8583 11.4822 13.9275 11.1775C14.0106 10.8822 14.0383 10.6329 14.0521 10.4391C14.066 10.2591 14.066 9.94062 14.066 9.51139V9.01293C13.2906 9.01293 12.6961 9.06831 12.2936 9.17908C11.1167 9.51139 10.5213 10.2591 10.5213 11.4222L10.489 11.4129ZM18.9463 17.8994C18.974 17.844 19.0155 17.7979 19.0681 17.7425C19.4023 17.5182 19.7272 17.364 20.0373 17.2809C20.545 17.1582 21.0435 17.076 21.5254 17.0594C21.6546 17.0483 21.7838 17.0594 21.9038 17.0871C22.5038 17.1425 22.873 17.2422 22.9856 17.3917C23.0438 17.4748 23.0687 17.6022 23.0687 17.7517V17.8902C23.0687 18.3609 22.9395 18.9148 22.6856 19.5517C22.429 20.1886 22.0727 20.7037 21.6186 21.1025C21.5512 21.1579 21.4893 21.1856 21.4367 21.1856C21.409 21.1856 21.3813 21.1856 21.3536 21.1745C21.2706 21.1339 21.2549 21.0637 21.2946 20.9529C21.793 19.7899 22.0385 18.9748 22.0385 18.516C22.0385 18.3776 22.0109 18.2668 21.9582 18.1985C21.8244 18.0452 21.4505 17.9613 20.8284 17.9613C20.6041 17.9613 20.3364 17.976 20.0253 18.0037C19.6902 18.0453 19.3792 18.0868 19.1022 18.1283C19.0192 18.1283 18.9656 18.1154 18.9361 18.0877C18.9084 18.06 18.9028 18.0444 18.9176 18.0167C18.9176 18.001 18.9232 17.989 18.9361 17.9585L18.9463 17.8994Z" fill="currentColor"/>
</svg>

<svg xmlns="http://www.w3.org/2000/svg" width="24" height="24" fill="currentColor" viewBox="0 0 24 24">
  <path d="M.965 17.557c.066-.107.172-.115.32-.02 3.357 1.947 7.01 2.922 10.958 2.922 2.633 0 5.232-.492 7.797-1.472l.29-.13c.128-.055.217-.092.271-.12.209-.08.36-.042.485.12.11.161.083.31-.11.444-.237.175-.555.378-.93.603-1.148.686-2.436 1.215-3.863 1.594a16.265 16.265 0 0 1-10.108-.533 16.506 16.506 0 0 1-5.012-3.092c-.093-.069-.139-.139-.139-.203 0-.044.019-.084.04-.113Zm6.06-5.74c0-.928.228-1.72.686-2.379.456-.655 1.08-1.153 1.883-1.49.734-.31 1.62-.531 2.688-.665.36-.042.953-.095 1.772-.16V6.78c0-.859-.097-1.438-.277-1.73-.279-.398-.72-.6-1.33-.6h-.167a2.21 2.21 0 0 0-1.15.424 1.67 1.67 0 0 0-.623 1.011c-.056.277-.19.43-.402.471l-2.326-.29c-.229-.056-.344-.167-.344-.36 0-.043.007-.084.02-.139.229-1.19.79-2.077 1.68-2.658.902-.57 1.94-.9 3.13-.97h.498c1.524 0 2.73.4 3.59 1.191.124.139.249.277.373.443.111.152.207.29.262.416.069.123.138.304.18.526.055.234.096.387.124.47.028.096.057.277.07.568.01.29.019.455.019.51v4.874c0 .348.055.665.152.957.097.289.194.498.29.622l.472.622c.083.126.125.236.125.332 0 .111-.055.209-.166.29-1.108.97-1.717 1.496-1.812 1.579-.152.124-.346.138-.582.041a5.59 5.59 0 0 1-.485-.458l-.286-.32a8.698 8.698 0 0 1-.293-.388l-.277-.401c-.748.818-1.48 1.33-2.215 1.537-.456.138-1.01.21-1.69.21-1.024 0-1.883-.317-2.547-.955-.665-.637-.997-1.537-.997-2.714l-.045-.075Zm3.464-.404c0 .522.13.941.392 1.259.263.314.623.473 1.066.473.042 0 .098-.007.18-.019a.99.99 0 0 1 .154-.021c.566-.148.997-.51 1.314-1.088.152-.258.263-.535.332-.84.084-.295.111-.544.125-.738.014-.18.014-.498.014-.928v-.498c-.775 0-1.37.055-1.772.166-1.177.332-1.773 1.08-1.773 2.243l-.032-.01Zm8.457 6.486a.67.67 0 0 1 .122-.157c.334-.224.66-.378.97-.461a7.475 7.475 0 0 1 1.487-.222c.13-.01.259 0 .379.028.6.055.969.155 1.082.305.058.083.083.21.083.36v.138c0 .47-.13 1.025-.383 1.662-.257.637-.613 1.152-1.067 1.55-.068.056-.13.084-.182.084-.028 0-.056 0-.083-.012-.083-.04-.1-.11-.06-.221.499-1.163.744-1.978.744-2.437 0-.138-.027-.25-.08-.317-.134-.154-.507-.238-1.13-.238a9.28 9.28 0 0 0-.803.043c-.335.041-.646.083-.923.124-.083 0-.136-.013-.166-.04-.028-.028-.033-.044-.018-.071 0-.016.005-.028.018-.058l.01-.06Z"/>
</svg>
